ummisco.gama.ui.shared/svg/views/tabs/view.test.svg

<svg xmlns="http://www.w3.org/2000/svg" xmlns:xl="http://www.w3.org/1999/xlink" width="16" height="16" version="1.1" viewBox="-472 -3330 16 16"><g id="ICONES" fill="none" fill-opacity="1" stroke="none" stroke-dasharray="none" stroke-opacity="1"><title>ICONES</title><g id="ICONES_Calque_1"><title>Calque 1</title><g id="Group_1961"><title>views/tabs/view.test</title><g id="Graphic_1965"><path fill="#518737" d="M -461.29544 -3317.756 L -461.29544 -3319.151 C -461.29544 -3319.3704 -461.4569 -3319.55 -461.65424 -3319.55 L -465.95976 -3319.55 C -466.1571 -3319.55 -466.31855 -3319.3704 -466.31855 -3319.151 L -466.31855 -3315.1646 C -466.31855 -3314.9453 -466.1571 -3314.766 -465.95976 -3314.766 L -461.65424 -3314.766 C -461.4569 -3314.766 -461.29544 -3314.9453 -461.29544 -3315.1646 L -461.29544 -3316.56 L -459.86027 -3314.9652 L -459.86027 -3319.3505 L -461.29544 -3317.756 Z"/></g><g id="Graphic_1964"><path fill="#d07638" d="M -461.29544 -3322.3617 L -461.29544 -3323.6467 C -461.29544 -3323.8486 -461.4569 -3324.014 -461.65424 -3324.014 L -465.95976 -3324.014 C -466.1571 -3324.014 -466.31855 -3323.8486 -466.31855 -3323.6467 L -466.31855 -3319.975 C -466.31855 -3319.7733 -466.1571 -3319.608 -465.95976 -3319.608 L -461.65424 -3319.608 C -461.4569 -3319.608 -461.29544 -3319.7733 -461.29544 -3319.975 L -461.29544 -3321.2602 L -459.86027 -3319.7916 L -459.86027 -3323.8303 L -461.29544 -3322.3617 Z"/></g><g id="Graphic_1963"><path fill="#9f4c4c" d="M -461.29544 -3327.119 L -461.29544 -3328.404 C -461.29544 -3328.606 -461.4569 -3328.771 -461.65424 -3328.771 L -465.95976 -3328.771 C -466.1571 -3328.771 -466.31855 -3328.606 -466.31855 -3328.404 L -466.31855 -3324.7325 C -466.31855 -3324.5306 -466.1571 -3324.3653 -465.95976 -3324.3653 L -461.65424 -3324.3653 C -461.4569 -3324.3653 -461.29544 -3324.5306 -461.29544 -3324.7325 L -461.29544 -3326.0175 L -459.86027 -3324.549 L -459.86027 -3328.5876 L -461.29544 -3327.119 Z"/></g><g id="Graphic_1962"><title>Traffic</title><path fill="#000" d="M -456 -3323.7778 L -459 -3323.7778 L -459 -3324.791 C -457.28 -3325.191 -456 -3326.569 -456 -3328.2222 L -459 -3328.2222 L -459 -3329.111 C -459 -3329.6 -459.45 -3330 -460 -3330 L -468 -3330 C -468.55 -3330 -469 -3329.6 -469 -3329.111 L -469 -3328.2222 L -472 -3328.2222 C -472 -3326.569 -470.72 -3325.191 -469 -3324.791 L -469 -3323.7778 L -472 -3323.7778 C -472 -3322.1244 -470.72 -3320.7467 -469 -3320.3467 L -469 -3319.3333 L -472 -3319.3333 C -472 -3317.68 -470.72 -3316.3022 -469 -3315.9022 L -469 -3314.889 C -469 -3314.4 -468.55 -3314 -468 -3314 L -460 -3314 C -459.45 -3314 -459 -3314.4 -459 -3314.889 L -459 -3315.9022 C -457.28 -3316.3022 -456 -3317.68 -456 -3319.3333 L -459 -3319.3333 L -459 -3320.3467 C -457.28 -3320.7467 -456 -3322.1244 -456 -3323.7778 Z M -464 -3315.7778 C -465.11 -3315.7778 -466 -3316.5778 -466 -3317.5556 C -466 -3318.5333 -465.11 -3319.3333 -464 -3319.3333 C -462.9 -3319.3333 -462 -3318.5333 -462 -3317.5556 C -462 -3316.5778 -462.89 -3315.7778 -464 -3315.7778 Z M -464 -3320.2222 C -465.11 -3320.2222 -466 -3321.0222 -466 -3322 C -466 -3322.9778 -465.11 -3323.7778 -464 -3323.7778 C -462.9 -3323.7778 -462 -3322.9778 -462 -3322 C -462 -3321.0222 -462.89 -3320.2222 -464 -3320.2222 Z M -464 -3324.6667 C -465.11 -3324.6667 -466 -3325.4667 -466 -3326.4444 C -466 -3327.431 -465.11 -3328.2222 -464 -3328.2222 C -462.9 -3328.2222 -462 -3327.431 -462 -3326.4444 C -462 -3325.4667 -462.89 -3324.6667 -464 -3324.6667 Z"/></g></g></g></g></svg>

<svg xmlns="http://www.w3.org/2000/svg" width="16" height="16" viewBox="-472 -3330 16 16"><g fill="none"><path fill="#518737" d="M-461.295-3317.756v-1.395c0-.22-.162-.399-.36-.399h-4.305c-.197 0-.359.18-.359.399v3.986c0 .22.162.399.36.399h4.305c.197 0 .359-.18.359-.399v-1.395l1.435 1.595v-4.385l-1.435 1.594Z"/><path fill="#d07638" d="M-461.295-3322.362v-1.285a.364.364 0 0 0-.36-.367h-4.305a.364.364 0 0 0-.359.367v3.672c0 .202.162.367.36.367h4.305a.364.364 0 0 0 .359-.367v-1.285l1.435 1.468v-4.038l-1.435 1.468Z"/><path fill="#9f4c4c" d="M-461.295-3327.119v-1.285a.364.364 0 0 0-.36-.367h-4.305a.364.364 0 0 0-.359.367v3.671c0 .202.162.368.36.368h4.305a.364.364 0 0 0 .359-.368v-1.284l1.435 1.468v-4.039l-1.435 1.469Z"/><path fill="#000" d="M-456-3323.778h-3v-1.013c1.72-.4 3-1.778 3-3.431h-3v-.889c0-.489-.45-.889-1-.889h-8c-.55 0-1 .4-1 .889v.889h-3c0 1.653 1.28 3.031 3 3.431v1.013h-3c0 1.654 1.28 3.031 3 3.431v1.014h-3c0 1.653 1.28 3.03 3 3.43v1.014c0 .489.45.889 1 .889h8c.55 0 1-.4 1-.889v-1.013c1.72-.4 3-1.778 3-3.431h-3v-1.014c1.72-.4 3-1.777 3-3.43Zm-8 8c-1.11 0-2-.8-2-1.778 0-.977.89-1.777 2-1.777 1.1 0 2 .8 2 1.777 0 .978-.89 1.778-2 1.778Zm0-4.444c-1.11 0-2-.8-2-1.778s.89-1.778 2-1.778c1.1 0 2 .8 2 1.778s-.89 1.778-2 1.778Zm0-4.445c-1.11 0-2-.8-2-1.777 0-.987.89-1.778 2-1.778 1.1 0 2 .791 2 1.778 0 .977-.89 1.777-2 1.777Z"/></g></svg>
